src/img/icons/icon-telegram.svg

<?xml version="1.0" encoding="UTF-8"?>
<svg width="36px" height="36px" viewBox="0 0 36 36" version="1.1" xmlns="http://www.w3.org/2000/svg" xmlns:xlink="http://www.w3.org/1999/xlink">
    <!-- Generator: sketchtool 53.2 (72643) - https://sketchapp.com -->
    <title>5255652A-FFF4-4F61-A8BC-6B6E3E42BEC7</title>
    <desc>Created with sketchtool.</desc>
    <g id="Header-&amp;-Footer" stroke="none" stroke-width="1" fill="none" fill-rule="evenodd">
        <g id="Footer/footer-desktop-1280" transform="translate(-330.000000, -261.000000)">
            <g id="icon/social/ico-social-telegram-ghost" transform="translate(330.000000, 261.000000)">
                <circle id="Combined-Shape" stroke="#4489FF" stroke-width="1" fill-rule="nonzero" cx="18" cy="18" r="17.5"></circle>
                <path d="M14.7316124,23.9895757 C14.7611538,23.9178773 14.7733455,23.9006307 14.7750933,23.8824095 C14.8632487,22.9486348 14.9466723,22.0143941 15.0431828,21.0814669 C15.0540104,20.9764618 15.1137753,20.8525574 15.1916999,20.7820031 C16.0982765,19.9609458 17.0141886,19.1501433 17.9245591,18.3332388 C19.2261297,17.1653001 20.5251426,15.9946071 21.8250933,14.824931 C22.1355554,14.5455105 22.44768,14.2678698 22.7528135,13.9828558 C22.7977864,13.9408198 22.8462548,13.8360689 22.8256653,13.8060674 C22.7907527,13.7551327 22.6927502,13.7038167 22.6378023,13.7176309 C22.4626425,13.7616585 22.2779766,13.8084404 22.1272429,13.9021738 C20.4196375,14.9641328 18.7180001,16.035626 17.0139755,17.1033479 C16.1516471,17.643671 15.2871447,18.1806466 14.4246885,18.7208002 C14.0317832,18.9668716 13.6414783,19.217011 13.2478484,19.4666419 C13.7413138,20.9707835 14.2281293,22.454797 14.7316124,23.9895757 M17.5840867,22.7610409 C16.8785453,23.4422607 16.1841725,24.1091579 15.494361,24.7807163 C15.2549177,25.0138209 14.9781746,25.1117495 14.6439686,25.0825107 C14.4384574,25.0645438 14.3277943,24.9703866 14.2648749,24.7765635 C13.7451504,23.1742815 13.2169855,21.5747538 12.6993497,19.9718362 C12.6456807,19.8057687 12.5632801,19.7264004 12.3932784,19.6749148 C11.1729573,19.3053204 9.95604659,18.9244543 8.73986052,18.5414694 C8.57241647,18.4887549 8.40322465,18.4234127 8.25526174,18.3313743 C7.94722948,18.1397547 7.90975918,17.8484692 8.18782374,17.6151951 C8.39504002,17.441373 8.64271058,17.2997135 8.89430294,17.1967 C9.61502001,16.9015584 10.3468631,16.633452 11.0743154,16.3546247 C15.3859146,14.7019165 19.6975137,13.0491659 24.0091555,11.3964576 C24.2471068,11.3052667 24.4875732,11.2199236 24.7226684,11.1219526 C25.0536347,10.9840221 25.383791,10.9185952 25.6848749,11.1707262 C25.9961469,11.4313322 26.0430381,11.7912652 25.9697173,12.1589527 C25.7823659,13.098787 25.5774515,14.0351465 25.3776526,14.972523 C24.7591582,17.8743603 24.1401523,20.7760706 23.520507,23.6776537 C23.4101423,24.1945858 23.3103494,24.7143571 23.1798215,25.2263737 C22.9891023,25.9745037 22.4784576,26.1894719 21.7914596,25.8300051 C21.7227854,25.7940711 21.6577772,25.7499164 21.5951988,25.7039819 C20.3218481,24.768936 19.0490943,23.8330003 17.776042,22.8974459 C17.7194316,22.8558337 17.6614571,22.8159588 17.5840867,22.7610409" id="Fill-1" fill="#4489FF" fill-rule="evenodd"></path>
            </g>
        </g>
    </g>
</svg>

<svg width="36" height="36" xmlns="http://www.w3.org/2000/svg"><g fill="none" fill-rule="evenodd"><circle stroke="#4489FF" cx="18" cy="18" r="17.5"/><path d="M14.732 23.99c.03-.072.041-.09.043-.108.088-.933.172-1.868.268-2.8a.508.508 0 0 1 .149-.3c.906-.821 1.822-1.632 2.733-2.449 1.301-1.168 2.6-2.338 3.9-3.508.31-.28.623-.557.928-.842.045-.042.093-.147.073-.177-.035-.05-.133-.102-.188-.088-.175.044-.36.09-.51.184-1.708 1.062-3.41 2.134-5.114 3.201-.862.54-1.727 1.078-2.59 1.618-.392.246-.783.496-1.176.746l1.484 4.523m2.852-1.229c-.705.681-1.4 1.348-2.09 2.02-.24.233-.516.33-.85.302-.206-.018-.316-.113-.38-.306-.519-1.603-1.047-3.202-1.565-4.805-.053-.166-.136-.246-.306-.297-1.22-.37-2.437-.75-3.653-1.134a2.13 2.13 0 0 1-.485-.21c-.308-.191-.345-.483-.067-.716.207-.174.455-.315.706-.418.721-.295 1.453-.564 2.18-.842l12.935-4.959c.238-.09.479-.176.714-.274.33-.138.66-.203.962.049.311.26.358.62.285.988-.188.94-.393 1.876-.592 2.814l-1.857 8.705c-.11.517-.21 1.036-.341 1.548-.19.749-.702.963-1.389.604a1.55 1.55 0 0 1-.196-.126l-3.819-2.807-.192-.136" fill="#4489FF"/></g></svg>
